X: 1
C: Johann Sebastian Bach
T: Suite 2 for Cello
T: Prélude
K: F
V: 1 clef=treble middle=D
L: 1/16
V: wd name="wd"
V: str name="str"
%%this is a comment
[V: wd] z2z2 (z4 z)(zzz) | (zzzz) (z4 z)(zzz) | (zzzz) z2>z2 (zzzz) | (zzzz) (z2z2z2z2) |
[V: str] z2z2 (z4 z)(zzz) | (zzzz) (z4 z)(zzz) | (zzzz) z2>z2 (zzzz) | (zzzz) (z2z2z2z2) |
%
[V: wd] (zzzz) z2>z2 (zzzz) | (zzzz) zzzz zzzz | (zzzz) z2>z2 (zzzz) | (zzzz) zzzz (zzzz) | 
[V: str] (zzzz) z2>z2 (zzzz) | (zzzz) zzzz zzzz | (zzzz) z2>z2 (zzzz) | (zzzz) zzzz (zzzz) | 
%
[V: wd] (zzzz) z2>z2 (zzzz) | (zzzz) (zzzz) (zzzz) | (zzzz) (zzzz) zzzz | (zzzz) zzzz zzzz | 
[V: str] (zzzz) z2>z2 (zzzz) | (zzzz) (zzzz) (zzzz) | (zzzz) (zzzz) zzzz | (zzzz) zzzz zzzz | 
%
[V: wd] z2z2 (z4 z)(zzz) | (^F,A,B,C) (D,CB,A,) (^F_EDC) | (B,A,G,B,) (D4 D)CB,A, | (^G=BCD) (E,DCB,) (^GFED) |
[V: str] z2z2 (z4 z)(zzz) | (zzzz) (zzzz) (zzzz) | (zzzz) (z4 z)zzz | (zzzz) (zzzz) (zzzz) |
%
[V: wd] (C=B,A,C) FEF^G AFDC | (=B,D^G=B) d2>c2 (=BA^GA) | (CEAc) e2>c2 (=BA^GA) | (DFAd) f2>e2 (dc=Bd) |
[V: str] (zzzz) zzzz zzzz | (zzzz) z2>z2 (zzzz) | (zzzz) z2>z2 (zzzz) | (zzzz) z2>z2 (zzzz) |
%
[V: wd] E(dc=B) A(cBA) D(BA^G) | C(AGF) ^C(GFE) D(FED) | ^G,(DEF) =B(FED) ^G,(DC=B,) | (A,=BCE) A=BcA ECA,G, |
[V: str] z(zzz) z(zzz) z(zzz) | C(AGF) ^C(GFE) D(FED) | ^G,(DEF) =B(FED) ^G,(DC=B,) | (A,=BCE) A=BcA ECA,G, |
%
[V: wd] (^F,A,CD) _E2>D2 (CB,C)A | (B,A,B,)D G,(_EFG) A,(GFE) | (DCD)F B,(GAB) ^C(BAG) | (FEF)A D(Bcd) E(dcB) |
[V: str] (^F,A,CD) _E2>D2 (CB,C)A | (B,A,B,)D G,(_EFG) A,(GFE) | (DCD)F B,(GAB) ^C(BAG) | (FEF)A D(Bcd) E(dcB) |
%
[V: wd] (AGA)C F(def) G(fed) | ^c(GFE) A(EFG) ^c(BAG) |(FGA)^c d(AGF) A(FED) | ^G(DEF) A,(FED) ^G(FED) | 
[V: str] (AGA)C F(def) G(fed) | ^c(GFE) A(EFG) ^c(BAG) |(FGA)^c d(AGF) A(FED) | ^G(DEF) A,(FED) ^G(FED) | 
%
[V: wd] (^C=B^CE) A(E^CE) A,(GFE) | (FEF)A d(AFA) D(cBA) | (GFG)^c e^eG^c A(GFE) | DAde fdAF DcBA | 
[V: str] (^C=B^CE) A(E^CE) A,(GFE) | (FEF)A d(AFA) D(cBA) | (GFG)^c e^eG^c A(GFE) | DAde fdAF DcBA | 
%
[V: wd] (GAB)D _EFGA BG_eG | (FGA)^C DEFG AFdF | (zzz)z zzzz zzzz | z2z2 (z4 z)(zzz) |
[V: str] (GAB)D _EFGA BG_eG | (FGA)^C DEFG AFdF | (EFG)B, A,=B,^CD EB,GB | ^C,2A,2 (G4 G)(BAG) |
%
[V: wd] (zzz)z zzzz zzzz | z2z2 (z4 z)zzz | zzzz zzzz zzzz | zzzz zzzz zzzz | 
[V: str] (FED)E FDAD dAFD | ^G,2F2 (d4 d)fed | ^c=BAB ^cAdA eAFa | ge^ce A^cef gfge | 
%
[V: wd] zzzz zzzz zzzz | zzzz zzzz zzzz | z(zzz) (zzz)z zzzz | !fermata![zzz]4 z4 z4 |
[V: str] fd^cd A^cde fefd | e^c=BC ABcd edec | d(=BA=B) (F^G=B)^c d^cdB | !fermata![G,E^c]4 z4 z4 |
%
[V: wd] z(zzz) zzzz zzzz | (zzzz) z2>z2 (zzz)z | zzzz zzzz zzzz | 
[V: str] B(G^FG) _EGDG _EGBD | (^CEGA) B2>A2 (G^FG)e | zzzz zzzz zzzz | 
%
[V: wd] zzzz (zzzz) zzzz | zzzz zzzz (zzz)z | [zzz]2>(z2 zzzz zzzz) | (zzzz) (zzzz zzzz) |
[V: str] zzzz (zzzz) zzzz | zzzz zzzz (zzz)z | [zzz]2>(z2 zzzz zzzz) | (zzzz) (zzzz zzzz) |
%
[V: wd] (zzzz) (zzzz zzzz) | (zzzz) zzzz zzzz | zzzz z(zzz) zzzz | [zzz]12 | [zzz]12 | [zzz]12 | [zzz]12 | [zzzz]12 ||
[V: str] (zzzz) (zzzz zzzz) | (zzzz) zzzz zzzz | zzzz z(zzz) zzzz | [zzz]12 | [zzz]12 | [zzz]12 | [zzz]12 | [zzzz]12 ||
%
[V: wd] "soli" zzzz z2z2 z2z2 zzzz | z
[V: str] "soli" cdef g2g2 a2a2 gzzz | z
%